images/icons/rocket.svg

<?xml version="1.0" encoding="UTF-8"?>
<svg width="48px" height="48px" viewBox="0 0 48 48" version="1.1" xmlns="http://www.w3.org/2000/svg" xmlns:xlink="http://www.w3.org/1999/xlink">
    <title>Group 15</title>
    <g id="Design" stroke="none" stroke-width="1" fill="none" fill-rule="evenodd">
        <g id="XL" transform="translate(-885.000000, -2098.000000)" fill="#2FBEFF" fill-rule="nonzero">
            <g id="Group-14" transform="translate(285.000000, 1864.000000)">
                <g id="Group-13-Copy" transform="translate(570.000000, 194.000000)">
                    <g id="Group-15" transform="translate(30.000129, 39.999991)">
                        <path d="M25.1869336,22.8141654 C24.8203711,22.4476029 24.2269336,22.4476029 23.8603711,22.8141654 C23.4947461,23.1797904 23.4947461,23.7732279 23.8603711,24.1397904 C24.2269336,24.5054154 24.8203711,24.5054154 25.1869336,24.1397904 C25.5525586,23.7732279 25.5525586,23.1797904 25.1869336,22.8141654 Z" id="Path"></path>
                        <path d="M37.1185898,10.8815717 C35.2867148,9.04979044 32.3212148,9.04969669 30.4892461,10.8815717 C28.6621523,12.7086654 28.6620586,15.6824154 30.4895273,17.5110092 C32.3172773,19.3376342 35.2910273,19.3383842 37.1185898,17.5108217 C38.9502773,15.6791342 38.9506523,12.7135404 37.1185898,10.8815717 Z M35.7927773,16.1849154 C34.6965586,17.2812279 32.9121211,17.2812279 31.8153398,16.1851029 C30.7189336,15.0880404 30.7188398,13.3036029 31.8151523,12.2073842 C32.9141836,11.1083529 34.6935586,11.1081654 35.7927773,12.2073842 C36.8918086,13.3063217 36.8919961,15.0857904 35.7927773,16.1849154 Z" id="Shape"></path>
                        <path d="M47.7251836,0.274602938 C47.5410586,0.0905716877 47.2898086,-0.00917831229 47.0286211,0.000665437713 C46.8166523,0.00825918771 41.7696211,0.211134188 35.7700898,2.33166544 C30.9625898,4.02910294 26.9554336,6.45938419 23.8599023,9.55500919 C23.1662461,10.2486654 22.4912461,10.9842279 21.8454023,11.7483842 C18.7846523,9.94669669 16.3319648,10.5116342 14.7814336,11.3414154 C11.2113398,13.2520404 9.00155859,18.4397904 9.00155859,22.1504154 C9.00155859,22.5295404 9.23030859,22.8714467 9.58055859,23.0164779 C9.69652734,23.0645717 9.81840234,23.0879154 9.93915234,23.0879154 C10.1831836,23.0879154 10.4229023,22.9925717 10.6022461,22.8133217 C12.4850273,20.9305404 14.8073086,21.0482904 15.5659336,21.1480404 L15.8942461,21.4763529 C15.2481211,23.0138529 14.7276211,24.5427279 14.3458711,26.0296967 C14.2080586,26.5678217 14.2545586,27.1372592 14.4594023,27.6581342 C13.5567773,28.0741029 12.6859336,28.6848842 11.9276836,29.4431342 C9.51446484,31.8564467 9.02443359,37.7377592 9.00474609,37.9869467 C8.98318359,38.2604154 9.08237109,38.5296654 9.27633984,38.7236342 C9.45287109,38.9000717 9.69165234,38.9982279 9.93915234,38.9982279 C9.96371484,38.9982279 9.98837109,38.9972904 10.0130273,38.9953217 C10.2622148,38.9757279 16.1437148,38.4856967 18.5569336,36.0724779 C19.3149023,35.3145092 19.9255898,34.4437592 20.3415586,33.5413217 C20.8929961,33.7581654 21.4605586,33.7848842 21.9709336,33.6541029 C23.4572461,33.2724467 24.9859336,32.7521342 26.5236211,32.1059154 L26.8519336,32.4342279 C26.9515898,33.1929467 27.0693398,35.5152279 25.1866523,37.3978217 C24.9186211,37.6659467 24.8383711,38.0691654 24.9834961,38.4194154 C25.1285273,38.7697592 25.4703398,38.9982279 25.8495586,38.9982279 C29.5601836,38.9982279 34.7478398,36.7883529 36.6584648,33.2182592 C37.4882461,31.6679154 38.0531836,29.2152279 36.2514961,26.1543842 C37.0152773,25.5088217 37.7509336,24.8338217 38.4448711,24.1398842 C41.5404961,21.0442592 43.9706836,17.0371029 45.6681211,12.2299779 C47.7887461,6.23016544 47.9915273,1.18304044 47.9991211,0.971165438 C48.0084961,0.711009188 47.9092148,0.458727938 47.7251836,0.274602938 Z M11.0976211,20.1339467 C11.6799961,17.3155404 13.3715273,14.2228217 15.6665273,12.9945092 C17.2001836,12.1738217 18.8765273,12.2542592 20.6589023,13.2299154 C19.1404336,15.2269779 17.8203398,17.3785404 16.7199961,19.6505717 C16.7060273,19.6419467 16.5372773,19.4297904 16.2237773,19.3591029 C16.0948711,19.3299467 13.6143398,18.7964154 11.0976211,20.1339467 Z M17.2311211,34.7465717 C15.9420586,36.0356342 12.9181523,36.7155092 11.0068711,36.9931029 C11.2845586,35.0817279 11.9645273,32.0579154 13.2534961,30.7689467 C13.9753711,30.0470717 14.8123711,29.4997592 15.6536836,29.1915092 L18.8085586,32.3463842 C18.5003086,33.1876967 17.9530898,34.0246967 17.2311211,34.7465717 Z M21.5051836,31.8377904 C21.2338711,31.9072592 20.9196211,31.8052592 20.6859961,31.5720092 C19.4731523,30.3591654 18.9986836,29.8846967 18.8498086,29.7359154 C18.5768086,29.4629154 17.9073398,28.7934467 16.4286211,27.3146342 C16.1948086,27.0803529 16.0928086,26.7661967 16.1620898,26.4953529 C16.4623711,25.3259154 16.8550898,24.1261029 17.3326523,22.9147592 L25.0853086,30.6674154 C23.8737773,31.1450717 22.6741523,31.5376967 21.5051836,31.8377904 Z M35.0055586,32.3335404 C33.7772461,34.6284467 30.6846211,36.3200717 27.8663086,36.9023529 C28.7649023,35.2113842 28.9629961,33.0587904 28.6346836,31.7535092 C28.5584648,31.4503217 28.3606523,31.2978842 28.3495898,31.2799779 C30.6214336,30.1796342 32.7729023,28.8595404 34.7701523,27.3410717 C35.7458086,29.1236342 35.8261523,30.8001654 35.0055586,32.3335404 Z M37.1192461,22.8140717 C36.2744648,23.6587592 35.3648086,24.4748529 34.4154961,25.2395717 C32.1334336,27.0770717 29.6216836,28.6335092 26.9419336,29.8725092 L18.1275586,21.0583217 C19.3665586,18.3783842 20.9229961,15.8666342 22.7603086,13.5848529 C23.5256836,12.6348842 24.3416836,11.7251342 25.1860898,10.8808217 C27.9634336,8.10338419 31.5478711,5.89294669 35.8427461,4.30182169 L43.6982461,12.1573217 C42.1073086,16.4521029 39.8968711,20.0365404 37.1192461,22.8140717 Z M44.3727773,10.1800404 L37.8200273,3.62729044 C41.3901211,2.51841544 44.4959648,2.10319669 46.0462148,1.95394669 C45.8968711,3.50447794 45.4815586,6.61032169 44.3727773,10.1800404 Z" id="Shape"></path>
                        <path d="M22.5346523,38.7233529 C22.1683711,38.3572592 21.5747461,38.3574467 21.2087461,38.7235404 L18.5574961,41.3757279 C18.1914961,41.7419154 18.1915898,42.3355404 18.5576836,42.7015404 C18.9239648,43.0675404 19.5175898,43.0675404 19.8835898,42.7013529 L22.5348398,40.0491654 C22.9008398,39.6829779 22.9007461,39.0893529 22.5346523,38.7233529 Z" id="Path"></path>
                        <path d="M9.27680859,25.4654154 C8.91080859,25.0992279 8.31727734,25.0992279 7.95099609,25.4652279 L5.29880859,28.1164779 C4.93262109,28.4824779 4.93252734,29.0761029 5.29852734,29.4422904 C5.66443359,29.8082904 6.25796484,29.8086654 6.62433984,29.4424779 L9.27652734,26.7912279 C9.64271484,26.4252279 9.64280859,25.8316029 9.27680859,25.4654154 Z" id="Path"></path>
                        <path d="M15.9057773,40.0500092 C15.5398711,39.6839154 14.9461523,39.6839154 14.5799648,40.0499154 L8.22933984,46.3996029 C7.86315234,46.7656967 7.86315234,47.3593217 8.22924609,47.7254154 C8.59515234,48.0915092 9.18887109,48.0916967 9.55505859,47.7255092 L15.9056836,41.3758217 C16.2718711,41.0097279 16.2718711,40.4161029 15.9057773,40.0500092 Z" id="Path"></path>
                        <path d="M8.40577734,40.0500092 C8.03977734,39.6839154 7.44605859,39.6839154 7.07996484,40.0499154 L0.729339845,46.3996029 C0.363152345,46.7656967 0.363152345,47.3593217 0.729246095,47.7254154 C1.09515234,48.0915092 1.68887109,48.0916967 2.05505859,47.7255092 L8.40568359,41.3758217 C8.77187109,41.0097279 8.77187109,40.4161029 8.40577734,40.0500092 Z" id="Path"></path>
                        <path d="M7.95005859,32.0941967 C7.58405859,31.7281967 6.99033984,31.7281967 6.62424609,32.0942904 L0.274558595,38.4449154 C-0.0915351551,38.8111029 -0.0915351551,39.4046342 0.274652345,39.7708217 C0.640746095,40.1369154 1.23437109,40.1369154 1.60046484,39.7707279 L7.95015234,33.4201029 C8.31624609,33.0539154 8.31624609,32.4603842 7.95005859,32.0941967 Z" id="Path"></path>
                        <path d="M29.1639023,18.8361654 C28.7977148,18.4700717 28.2042773,18.4700717 27.8379961,18.8361654 L26.5123711,20.1617904 C26.1462773,20.5278842 26.1462773,21.1215092 26.5123711,21.4876967 C26.8785586,21.8537904 27.4720898,21.8537904 27.8382773,21.4876967 L29.1639023,20.1620717 C29.5299961,19.7959779 29.5299961,19.2023529 29.1639023,18.8361654 Z" id="Path"></path>
                    </g>
                </g>
            </g>
        </g>
    </g>
</svg>

<svg width="48" height="48" xmlns="http://www.w3.org/2000/svg"><g id="Design" stroke="none" stroke-width="1" fill="none" fill-rule="evenodd"><g id="XL" transform="translate(-885 -2098)" fill="#2FBEFF" fill-rule="nonzero"><g id="Group-14" transform="translate(285 1864)"><g id="Group-13-Copy" transform="translate(570 194)"><g id="Group-15" transform="translate(30 40)"><path d="M25.187 22.814a.938.938 0 10-1.327 1.325.938.938 0 001.327-1.325z" id="Path"/><path d="M37.119 10.882a4.686 4.686 0 00-6.63 0 4.694 4.694 0 000 6.629 4.694 4.694 0 006.63 0 4.685 4.685 0 000-6.63zm-1.326 5.303a2.816 2.816 0 01-3.978 0 2.816 2.816 0 010-3.978 2.811 2.811 0 013.978 0 2.811 2.811 0 010 3.978z" id="Shape"/><path d="M47.725.275A.934.934 0 0047.03 0c-.212.007-5.26.21-11.259 2.33-4.807 1.698-8.815 4.128-11.91 7.224a35.675 35.675 0 00-2.015 2.193c-3.06-1.801-5.513-1.236-7.064-.407-3.57 1.911-5.78 7.099-5.78 10.81a.938.938 0 001.601.662c1.883-1.882 4.205-1.765 4.964-1.665l.328.328a32.975 32.975 0 00-1.548 4.554 2.654 2.654 0 00.113 1.628 8.878 8.878 0 00-2.531 1.785c-2.414 2.413-2.904 8.295-2.923 8.544a.938.938 0 001.008 1.008c.25-.02 6.13-.51 8.544-2.923a8.878 8.878 0 001.785-2.53 2.647 2.647 0 001.629.112 32.979 32.979 0 004.553-1.548l.328.328c.1.759.217 3.081-1.665 4.964a.938.938 0 00.663 1.6c3.71 0 8.898-2.21 10.808-5.78.83-1.55 1.395-4.003-.407-7.064.764-.645 1.5-1.32 2.194-2.014 3.095-3.096 5.526-7.103 7.223-11.91 2.12-6 2.324-11.047 2.331-11.259a.938.938 0 00-.274-.696zM11.098 20.134c.582-2.818 2.274-5.911 4.569-7.14 1.533-.82 3.21-.74 4.992.236a37.906 37.906 0 00-3.939 6.42c-.014-.008-.183-.22-.496-.29-.13-.03-2.61-.564-5.126.774zm6.133 14.613c-1.289 1.289-4.313 1.969-6.224 2.246.278-1.911.958-4.935 2.246-6.224.722-.722 1.56-1.27 2.4-1.577l3.156 3.154c-.309.842-.856 1.679-1.578 2.4zm4.274-2.91c-.271.07-.585-.032-.819-.265a17420.51 17420.51 0 00-1.836-1.836l-2.421-2.421c-.234-.235-.336-.549-.267-.82.3-1.17.693-2.369 1.17-3.58l7.753 7.752a30.42 30.42 0 01-3.58 1.17zm13.5.497c-1.228 2.294-4.32 3.986-7.139 4.568.899-1.69 1.097-3.843.769-5.148-.077-.304-.274-.456-.285-.474a37.92 37.92 0 006.42-3.939c.976 1.783 1.056 3.46.236 4.993zm2.114-9.52a34.028 34.028 0 01-2.704 2.426 36.019 36.019 0 01-7.473 4.633l-8.814-8.815a36.013 36.013 0 014.632-7.473c.766-.95 1.582-1.86 2.426-2.704 2.777-2.778 6.362-4.988 10.657-6.58l7.855 7.856c-1.59 4.295-3.801 7.88-6.579 10.657zm7.254-12.634L37.82 3.627a42.149 42.149 0 018.226-1.673 42.155 42.155 0 01-1.673 8.226z" id="Shape"/><path d="M22.535 38.723a.938.938 0 00-1.326 0l-2.652 2.653a.938.938 0 001.327 1.325l2.65-2.652a.938.938 0 000-1.326zM9.277 25.465a.938.938 0 00-1.326 0l-2.652 2.651a.938.938 0 001.325 1.326l2.653-2.65a.938.938 0 000-1.327zm6.629 14.585a.938.938 0 00-1.326 0L8.23 46.4a.937.937 0 101.325 1.326l6.35-6.35a.937.937 0 000-1.326zm-7.5 0a.938.938 0 00-1.326 0L.73 46.4a.937.937 0 101.325 1.326l6.35-6.35a.937.937 0 000-1.326zm-.456-7.956a.938.938 0 00-1.326 0l-6.35 6.35A.938.938 0 001.6 39.772l6.35-6.35a.938.938 0 000-1.327zm21.214-13.258a.938.938 0 00-1.326 0l-1.326 1.326a.938.938 0 001.326 1.326l1.326-1.326a.938.938 0 000-1.326z" id="Path"/></g></g></g></g></g></svg>
